.local/share/icons/Gruvbox-Plus-Dark/panel/24/uget-tray-downloading.svg

<svg width="24" height="24" version="1.1" xmlns="http://www.w3.org/2000/svg">
  <defs>
    <style id="current-color-scheme" type="text/css">.ColorScheme-Text { color:#ebdbb2; } .ColorScheme-Highlight { color:#458588; } .ColorScheme-NeutralText { color:#fe8019; } .ColorScheme-PositiveText { color:#689d6a; } .ColorScheme-NegativeText { color:#fb4934; }</style>
  </defs>
  <path class="ColorScheme-Text" d="m20 11h-4v2h2l-4 5-4-5h2v-6h4v2h4v-2s0-3-3-3h-6s-3 0-3 3v7h-2v-6h-2v6c0 2 2 2 2 2h2v1c0 3 3 3 3 3h6c3 0 3-3 3-3" fill="currentColor"/>
  <path class="ColorScheme-Highlight" d="m13 8v6h-0.918l1.918 2.398 1.918-2.398h-0.918v-6z" fill="currentColor"/>
</svg>

<svg xmlns="http://www.w3.org/2000/svg" width="24" height="24" version="1.1">
 <defs>
  <style id="current-color-scheme" type="text/css">
   .ColorScheme-Text { color:#ebdbb2; } .ColorScheme-Highlight { color:#458588; }
  </style>
 </defs>
 <path style="fill:currentColor" class="ColorScheme-Text" d="m 20,11 h -4 v 2 h 2 l -4,5 -4,-5 h 2 V 7 h 4 v 2.0000001 h 4 V 7 C 20,7 20,4 17,4 H 11 C 11,4 8,4 8,7 v 1 6 H 6 V 8.0000001 H 4 V 14 c 0,2 2,2 2,2 h 2 v 1 c 0,3 3,3 3,3 h 6 c 3,0 3,-3 3,-3"/>
 <path style="fill:currentColor" class="ColorScheme-Highlight" d="m 13,8 v 6 H 12.082031 L 14,16.398438 15.917968,14 H 15 V 12 11 8 Z"/>
</svg>
